www/assets/icons/layers.svg

<svg width="24" height="24" viewBox="0 0 24 24" xmlns="http://www.w3.org/2000/svg" fill='currentColor'><path d="M11.99 19.0051L4.62 13.2751L3 14.5351L12 21.5351L21 14.5351L19.37 13.2651L11.99 19.0051ZM12 16.4651L19.36 10.7351L21 9.46509L12 2.46509L3 9.46509L4.63 10.7351L12 16.4651Z"/></svg>

<svg xmlns="http://www.w3.org/2000/svg" width="24" height="24" viewBox="0 0 24 24" fill='currentColor'><path d="m11.99 19.005-7.37-5.73L3 14.535l9 7 9-7-1.63-1.27zm.01-2.54 7.36-5.73L21 9.465l-9-7-9 7 1.63 1.27z"/></svg>
